X:1
T:Title
%%score { ( 1 4 ) | ( 2 3 ) }
L:1/8
Q:1/4=100
M:4/4
K:Ab
V:1 treble nm="Grand Piano"
V:4 treble 
V:2 bass 
V:3 bass 
V:1
 [Ec]2 [Ec]2 [Ec]3 [Ec] | [Ec][DB][CA][DB] [CA]2 [CE]2 | [Ee]2 [Ee]2 [Ee]3 [Ed] | %3
w: John~R.~Sweney * * *|||
 [Ec][DB][CA]c B4 | [Ec]2 [Ec]2 [Ec]3 c | cABc [Fe]2 [Fd]2 | c3 c cBAG | [CA]6 z2 | B3 e edcB | %9
w: ||||||
 c2 [CA]2 [DF]2 [CE]2 | [EB]3 [Ge] [Ge]3 [GB] | z4 [Ge]4 | e3 c dc[DB]A | A2 Bc [Fe]2 [Fd]2 | %14
w: |||||
 c3 c cBAG | [CA]6 z2 |] %16
w: ||
V:2
 [A,,A,]2 [A,,A,]2 [A,,A,]3 [A,,A,] | [A,,A,]2 [A,,E,]2 [A,,E,]2 [A,,A,]2 | %2
 [E,G,]2 [E,G,]2 [E,G,]3 [E,B,] | [A,,A,]2 E,[A,E] [E,E]4 | %4
 [A,,A,]2 [A,,A,]2 [A,,A,]3[K:treble] [A,E] | [A,E]2 z2[K:bass] z4 | %6
 [E,A,E]3 [E,A,E] [E,A,E][E,DE][E,CE][E,B,D] | [A,,A,]6 z2 | z4 [E,E]2 [E,E]2 | %9
 [A,E]2 [A,,E,]2 [A,,A,]2 [A,,A,]2 | [E,G,]3 [E,B,] [E,B,]3 [E,E] | z4 B,2 z2 | %12
 [A,CE]3 [A,E] FE z C | [A,CE]2 [G,B,E][A,_G][K:bass] [D,A,]2 [D,A,]2 | %14
 [E,A,E]3 [E,A,E] [E,A,E][E,DE][E,CE][E,B,D] | [A,,A,]6 z2 |] %16
V:3
 x8 | x8 | x8 | z2 A,,2 z4 | x7[K:treble] x | z C[G,B,E][A,_G][K:bass] [D,A,]2 [D,A,]2 | x8 | x8 | %8
 [E,G,E]3 [E,G,E] G,B,A,G, | x8 | x8 | [A,E]2 [F,B,]2 E,4 | z4 A,2 A,2 | x4[K:bass] x4 | x8 | x8 |] %16
V:4
 x8 | x8 | x8 | x8 | x8 | x8 | x8 | x8 | x8 | x8 | x8 | [Ac]2 [A=d]2 z2 D2 | x8 | x8 | x8 | x8 |] %16

